icon/lg/aws-route53.svg

<?xml version="1.0" encoding="UTF-8"?>
<svg viewBox="0 0 256 256" version="1.1" xmlns="http://www.w3.org/2000/svg" xmlns:xlink="http://www.w3.org/1999/xlink" preserveAspectRatio="xMidYMid" height="1em" width="1em">
  <defs>
    <linearGradient x1="0%" y1="100%" x2="100%" y2="0%" id="linearGradient-1">
      <stop stop-color="#4D27A8" offset="0%"/>
      <stop stop-color="#A166FF" offset="100%"/>
    </linearGradient>
  </defs>
  <g>
    <rect fill="url(#linearGradient-1)" x="0" y="0" width="256" height="256"/>
    <path d="M155.8144,130.174435 C158.1792,132.360874 159.3632,135.289999 159.3632,138.968211 C159.3632,142.969747 157.9232,146.164574 155.0464,148.552691 C152.1664,150.944009 148.2976,152.138067 143.4432,152.138067 C139.6064,152.138067 135.808,151.318553 132.0512,149.685926 L132.0512,144.784844 C136.5024,146.25741 140.2976,146.990491 143.4432,146.990491 C146.5472,146.990491 148.9344,146.295824 150.608,144.909692 C152.2816,143.520359 153.1168,141.538798 153.1168,138.968211 C153.1168,134.025513 149.9968,131.554164 143.7472,131.554164 C141.7888,131.554164 139.8496,131.656604 137.9296,131.858281 L137.9296,127.81833 L150.7936,113.787343 L132.6656,113.787343 L132.6656,108.764615 L157.5904,108.764615 L157.5904,113.604873 L144.9728,126.960401 C145.1808,126.918785 145.3792,126.899578 145.5872,126.899578 L146.1984,126.899578 C150.2432,126.899578 153.4464,127.991196 155.8144,130.174435 M120.2368,129.105224 C122.7232,131.432518 123.968,134.636948 123.968,138.718515 C123.968,142.723253 122.5216,145.959695 119.6192,148.431044 C116.72,150.902393 112.9056,152.138067 108.1696,152.138067 C104.0096,152.138067 100.1088,151.318553 96.4736,149.685926 L96.4736,144.784844 C101.0048,146.25741 104.8832,146.990491 108.1088,146.990491 C111.2128,146.990491 113.5904,146.289422 115.2416,144.87768 C116.896,143.469139 117.7248,141.43956 117.7248,138.78254 C117.7248,135.882226 116.9472,133.779019 115.3952,132.472917 C113.8432,131.166816 111.312,130.510564 107.8016,130.510564 C105.2704,130.510564 102.1088,130.718644 98.3104,131.1252 L98.3104,127.082048 L99.4752,108.764615 L121.8272,108.764615 L121.8272,113.787343 L104.6176,113.787343 L103.8208,126.224118 C106.0672,125.817562 108.0864,125.612684 109.8816,125.612684 C114.2912,125.612684 117.744,126.77473 120.2368,129.105224 M166.2624,174.008864 C150.7296,176.800336 137.1264,183.125964 128,188.279943 C118.8704,183.125964 105.2672,176.800336 89.7376,174.008864 C85.3664,173.224563 63.5808,168.675617 63.5808,156.081981 C63.5808,150.246141 65.6704,146.375855 69.6832,139.464402 C74.4768,131.198828 80.4416,120.910078 80.4416,106.097991 C80.4416,95.5115267 77.6672,85.3604294 72.1888,75.8879926 C72.832,75.094088 73.488,74.2905795 74.1472,73.4806685 C82.2624,77.5366256 90.7104,79.5918147 99.2992,79.5918147 C109.7952,79.5918147 119.44,76.8355565 128,71.3966685 C136.5568,76.8355565 146.2016,79.5918147 156.6976,79.5918147 C165.2864,79.5918147 173.7376,77.5366256 181.8528,73.4806685 C182.5088,74.2905795 183.1648,75.094088 183.808,75.8879926 C178.3296,85.3604294 175.5552,95.5115267 175.5552,106.097991 C175.5552,120.910078 181.52,131.198828 186.3232,139.477206 C190.3264,146.375855 192.416,150.246141 192.416,156.081981 C192.416,168.675617 170.6304,173.224563 166.2624,174.008864 M181.9552,106.097991 C181.9552,95.991711 184.8064,86.304792 190.4224,77.3061373 C191.152,76.1440909 191.0592,74.6491171 190.1888,73.5863091 C188.5632,71.5951446 186.8576,69.4983395 185.1744,67.4143395 C184.1984,66.2074762 182.5024,65.8745482 181.1392,66.6236358 C173.2576,70.9805085 165.0368,73.1893565 156.6976,73.1893565 C146.6368,73.1893565 137.8464,70.4843181 129.8208,64.9237834 C128.7264,64.1650918 127.2704,64.1650918 126.176,64.9237834 C118.1504,70.4843181 109.36,73.1893565 99.2992,73.1893565 C90.96,73.1893565 82.7392,70.9805085 74.8576,66.6236358 C73.4976,65.8745482 71.7984,66.2074762 70.8224,67.4143395 C69.1392,69.4983395 67.4336,71.5951446 65.808,73.5863091 C64.9408,74.6491171 64.8448,76.1440909 65.5744,77.3061373 C71.1936,86.304792 74.0416,95.991711 74.0416,106.097991 C74.0416,119.187817 68.5536,128.647449 64.144,136.259971 C59.824,143.693225 57.1808,148.62952 57.1808,156.081981 C57.1808,173.327002 81.232,178.989977 88.6048,180.312084 C104.1568,183.106757 117.7376,189.698088 126.3904,194.733621 C126.8864,195.024933 127.4432,195.168988 128,195.168988 C128.5536,195.168988 129.1104,195.024933 129.6096,194.733621 C138.2624,189.698088 151.84,183.106757 167.392,180.312084 C174.7648,178.989977 198.816,173.327002 198.816,156.081981 C198.816,148.62952 196.1728,143.693225 191.8528,136.250368 C187.4432,128.647449 181.9552,119.187817 181.9552,106.097991 M169.5808,192.502364 C149.9616,196.030119 133.5136,206.58137 128,210.445253 C122.4832,206.58137 106.0352,196.030119 86.416,192.502364 C47.7984,185.565301 44.8,162.871788 44.8,156.081981 C44.8,144.912893 49.1872,137.354792 53.4304,130.039983 C57.4752,123.070908 61.6576,115.86174 61.6576,106.097991 C61.6576,90.6744698 52.752,79.7806874 48.3584,75.346985 C52.9792,69.7256269 64.6528,55.4929626 70.4096,48.0757149 C79.1328,56.3092758 89.2736,60.8006003 99.2992,60.8006003 C110.4288,60.8006003 119.632,56.2708611 128,46.6063507 C136.3648,56.2708611 145.568,60.8006003 156.6976,60.8006003 C166.7232,60.8006003 176.864,56.3092758 185.5904,48.0757149 C191.3472,55.4929626 203.0176,69.7256269 207.6384,75.346985 C203.2448,79.7806874 194.3392,90.6744698 194.3392,106.097991 C194.3392,115.86174 198.5248,123.070908 202.5664,130.039983 C206.8128,137.354792 211.2,144.912893 211.2,156.081981 C211.2,162.871788 208.1984,185.565301 169.5808,192.502364 M208.1024,126.82915 C204.1504,120.016935 200.7392,114.136277 200.7392,106.097991 C200.7392,89.1762944 213.9104,78.2312925 214.0384,78.1288531 C214.7008,77.5910467 215.1232,76.8099466 215.2128,75.9584198 C215.296,75.1068928 215.04,74.258567 214.496,73.5991139 C214.2816,73.3430157 193.3056,47.9124522 188.4992,41.3243229 C187.936,40.5528266 187.0624,40.0726422 186.1088,40.0150202 C185.152,39.944593 184.2304,40.3255392 183.5776,41.0234074 C175.5136,49.6475184 165.9712,54.3981421 156.6976,54.3981421 C146.4448,54.3981421 138.3808,49.8299882 130.5408,39.5860554 C129.328,38.0046483 126.672,38.0046483 125.4592,39.5860554 C117.616,49.8299882 109.552,54.3981421 99.2992,54.3981421 C90.0256,54.3981421 80.4832,49.6475184 72.4192,41.0234074 C71.7664,40.3255392 70.8384,39.9285869 69.888,40.0150202 C68.9376,40.0726422 68.0608,40.5528266 67.4976,41.3243229 C62.6912,47.9124522 41.7152,73.3430157 41.5008,73.5991139 C40.96,74.258567 40.704,75.1068928 40.7904,75.9552186 C40.8736,76.8035443 41.2928,77.5846442 41.952,78.1224506 C42.0864,78.2312925 55.2576,89.1762944 55.2576,106.097991 C55.2576,114.136277 51.8464,120.016935 47.8944,126.82915 C43.4432,134.499295 38.4,143.190632 38.4,156.081981 C38.4,177.559027 55.9264,193.529959 85.2864,198.805584 C107.3888,202.778309 125.8688,216.796492 126.0512,216.940547 C126.624,217.379115 127.312,217.6 128,217.6 C128.6848,217.6 129.3728,217.379115 129.9488,216.937346 C130.1344,216.796492 148.5504,202.787913 170.7104,198.805584 C200.0704,193.529959 217.6,177.559027 217.6,156.081981 C217.6,143.190632 212.5536,134.499295 208.1024,126.82915" fill="#FFFFFF"/>
  </g>
</svg>

<svg width="256" height="256" xmlns="http://www.w3.org/2000/svg" preserveAspectRatio="xMidYMid"><defs><linearGradient x1="0%" y1="100%" x2="100%" y2="0%" id="a"><stop stop-color="#4D27A8" offset="0%"/><stop stop-color="#A166FF" offset="100%"/></linearGradient></defs><path fill="url(#a)" d="M0 0h256v256H0z"/><path d="M155.814 130.174c2.365 2.187 3.55 5.116 3.55 8.794 0 4.002-1.44 7.197-4.318 9.585-2.88 2.391-6.748 3.585-11.603 3.585-3.837 0-7.635-.82-11.392-2.452v-4.901c4.451 1.472 8.247 2.205 11.392 2.205 3.104 0 5.491-.694 7.165-2.08 1.674-1.39 2.509-3.371 2.509-5.942 0-4.942-3.12-7.414-9.37-7.414-1.958 0-3.897.103-5.817.304v-4.04l12.864-14.03h-18.128v-5.023h24.924v4.84l-12.617 13.355c.208-.041.406-.06.614-.06h.611c4.045 0 7.248 1.091 9.616 3.274m-35.577-1.069c2.486 2.328 3.731 5.532 3.731 9.614 0 4.004-1.446 7.24-4.349 9.712-2.899 2.471-6.713 3.707-11.45 3.707-4.16 0-8.06-.82-11.695-2.452v-4.901c4.53 1.472 8.41 2.205 11.635 2.205 3.104 0 5.481-.7 7.133-2.112 1.654-1.409 2.483-3.438 2.483-6.095 0-2.9-.778-5.004-2.33-6.31s-4.083-1.962-7.593-1.962c-2.532 0-5.693.208-9.492.614v-4.043l1.165-18.317h22.352v5.022h-17.21l-.796 12.437c2.246-.406 4.265-.611 6.06-.611 4.41 0 7.863 1.162 10.356 3.492m46.025 44.904c-15.532 2.791-29.136 9.117-38.262 14.27-9.13-5.153-22.733-11.479-38.262-14.27-4.372-.784-26.157-5.333-26.157-17.927 0-5.836 2.09-9.706 6.102-16.618 4.794-8.265 10.759-18.554 10.759-33.366 0-10.586-2.775-20.738-8.253-30.21.643-.794 1.299-1.597 1.958-2.407 8.115 4.056 16.563 6.11 25.152 6.11 10.496 0 20.141-2.755 28.701-8.194 8.557 5.439 18.202 8.195 28.698 8.195 8.588 0 17.04-2.055 25.155-6.111.656.81 1.312 1.613 1.955 2.407-5.478 9.472-8.253 19.624-8.253 30.21 0 14.812 5.965 25.1 10.768 33.38 4.003 6.898 6.093 10.768 6.093 16.604 0 12.594-21.786 17.143-26.154 17.927m15.693-67.911c0-10.106 2.851-19.793 8.467-28.792a3.19 3.19 0 0 0-.233-3.72 1523.588 1523.588 0 0 1-5.015-6.172 3.2 3.2 0 0 0-4.035-.79c-7.881 4.357-16.102 6.565-24.441 6.565-10.061 0-18.852-2.705-26.877-8.265a3.203 3.203 0 0 0-3.645 0c-8.026 5.56-16.816 8.265-26.877 8.265-8.339 0-16.56-2.208-24.441-6.565a3.201 3.201 0 0 0-4.036.79c-1.683 2.084-3.388 4.181-5.014 6.172a3.194 3.194 0 0 0-.234 3.72c5.62 8.999 8.468 18.686 8.468 28.792 0 13.09-5.488 22.55-9.898 30.162-4.32 7.433-6.963 12.37-6.963 19.822 0 17.245 24.051 22.908 31.424 24.23 15.552 2.795 29.133 9.386 37.785 14.422a3.192 3.192 0 0 0 3.22 0c8.652-5.036 22.23-11.627 37.782-14.422 7.373-1.322 31.424-6.985 31.424-24.23 0-7.452-2.643-12.389-6.963-19.832-4.41-7.603-9.898-17.062-9.898-30.152m-12.374 86.404c-19.62 3.528-36.067 14.08-41.581 17.943-5.517-3.864-21.965-14.415-41.584-17.943-38.618-6.937-41.616-29.63-41.616-36.42 0-11.17 4.387-18.727 8.63-26.042 4.045-6.97 8.228-14.178 8.228-23.942 0-15.424-8.906-26.317-13.3-30.751 4.621-5.621 16.295-19.854 22.052-27.271C79.133 56.309 89.274 60.8 99.3 60.8c11.129 0 20.332-4.53 28.7-14.195 8.365 9.665 17.568 14.195 28.698 14.195 10.025 0 20.166-4.492 28.892-12.725 5.757 7.417 17.428 21.65 22.048 27.271-4.393 4.434-13.299 15.327-13.299 30.751 0 9.764 4.186 16.973 8.227 23.942 4.247 7.315 8.634 14.873 8.634 26.042 0 6.79-3.002 29.483-41.62 36.42m38.522-65.673c-3.952-6.812-7.363-12.693-7.363-20.731 0-16.922 13.171-27.867 13.3-27.97a3.23 3.23 0 0 0 1.174-2.17 3.213 3.213 0 0 0-.717-2.359c-.214-.256-21.19-25.687-25.997-32.275a3.196 3.196 0 0 0-2.39-1.309 3.15 3.15 0 0 0-2.531 1.008c-8.064 8.625-17.607 13.375-26.88 13.375-10.253 0-18.317-4.568-26.157-14.812-1.213-1.581-3.869-1.581-5.082 0-7.843 10.244-15.907 14.812-26.16 14.812-9.273 0-18.816-4.75-26.88-13.375-.653-.697-1.58-1.094-2.531-1.008a3.201 3.201 0 0 0-2.39 1.31C62.69 47.911 41.715 73.342 41.5 73.598a3.205 3.205 0 0 0-.71 2.356c.083.849.502 1.63 1.161 2.167.134.11 13.306 11.054 13.306 27.976 0 8.038-3.412 13.919-7.364 20.731-4.45 7.67-9.494 16.362-9.494 29.253 0 21.477 17.526 37.448 46.886 42.724 22.103 3.972 40.583 17.99 40.765 18.135a3.203 3.203 0 0 0 3.898-.004c.185-.14 18.601-14.15 40.761-18.131 29.36-5.276 46.89-21.247 46.89-42.724 0-12.891-5.046-21.583-9.498-29.253" fill="#FFF"/></svg>
